X: 148117
Q: "Slow."
M: 2/4
L: 1/16
K: Ador
|:\
vA4 (BA)GA | B2A2 A2(ed) |\
vA4 (BA)GA | B2A2 A2(ed) |\
e2de g2fg | a2ea g2eg |\
e2de g2fg | (ed)BA G4 |
e2de g2fg | a2ea g2eg |\
(gefd) (gedB) | e2(.A2 .A4) |\
(3(efe)de g2fg | a2ea g2eg |\
e2de g2fg | (ed)BA (GABG) |\
c2Bc d2cd | e2de g2a2 |\
(gefd) (gedB) | e2A2 A4 |]


